packages/sights/assets/overlays/g30kyiVH.svg

<svg width="500" height="375" viewBox="0 0 500 375" fill="none" xmlns="http://www.w3.org/2000/svg">
<path d="M190 5.33008C190 5.33008 235.5 22.5001 260.5 41.5001C260.5 41.5001 403.5 42.5001 473.5 102.5L483.5 127.5C483.5 127.5 479.5 186.5 471.5 197.5L473.5 204.5C473.5 204.5 487.5 238.5 359.5 299.5L298.5 315.5H183.08C183.08 315.5 158.5 307.5 145.5 298.5L141.5 290.5C141.5 290.5 95.4996 83.5001 40.4996 97.5001C40.4996 97.5001 8.49957 108.26 40.4996 192.38L41.3096 193.92" stroke="white" stroke-miterlimit="10"/>
<path d="M7.5 183.5L47.5 221.5" stroke="white" stroke-miterlimit="10"/>
<path d="M144.63 296.77L113.5 311.5L105.98 312.16C87.5 312.5 61.61 274.43 46.6 217.43C31.59 160.43 34.5 111.5 51.6 105.73L61.99 102.73" stroke="white" stroke-miterlimit="10"/>
<path d="M23 5C23 5 31.5 36.5 32.5 40.5V45.32H17.5" stroke="white" stroke-miterlimit="10"/>
<path d="M7.25 25.1599L9.5 29.4999L10.5 36.4999L7 37.6799" stroke="white" stroke-miterlimit="10"/>
<path d="M10.5 36.5C10.5 36.5 17.5 43.5 18.5 47.5L11.5 53.5L7 55.87" stroke="white" stroke-miterlimit="10"/>
<path d="M36.8799 5C36.8799 5 46.0799 28.5 47.7899 36.5C47.7899 36.5 231.5 31.5 260.5 41.5" stroke="white" stroke-miterlimit="10"/>
<path d="M119.5 97.5L123.5 87.5H135.84C135.84 87.5 342.5 115.5 368.5 115.5C368.5 115.5 321.5 156.5 313.5 158.5C313.5 158.5 193.5 158.5 166.5 150.5C166.5 150.5 137.5 125.5 119.5 97.5Z" stroke="white" stroke-miterlimit="10"/>
<path d="M368.5 115.5H380.43C380.43 115.5 431.5 113.5 473.5 102.5" stroke="white" stroke-miterlimit="10"/>
<path d="M351.5 169.5C340.5 172.5 204.5 165.5 204.5 165.5C195.5 164.5 166.5 150.5 166.5 150.5" stroke="white" stroke-miterlimit="10"/>
<path d="M380.43 115.5L351.5 167L350.5 171.53C350.5 171.53 381.5 253.53 383.5 254.53C383.5 254.53 386.5 257.53 387.5 257.53H391.5C391.5 257.53 455.5 229.53 471.5 197.53" stroke="white" stroke-miterlimit="10"/>
<path d="M427.5 177.5L429.5 174.5L476.5 151.5L472.5 178.5L424.5 211.5L422.5 210.5L427.5 177.5Z" stroke="white" stroke-miterlimit="10"/>
<path d="M47.79 36.5L45.5 52.5L47.5 54.5C47.5 54.5 132.72 54.26 195.11 95.38" stroke="white" stroke-miterlimit="10"/>
</svg>

<svg width="500" height="375" fill="none" xmlns="http://www.w3.org/2000/svg"><path d="M190 5.33s45.5 17.17 70.5 36.17c0 0 143 1 213 61l10 25s-4 59-12 70l2 7s14 34-114 95l-61 16H183.08s-24.58-8-37.58-17l-4-8s-46-207-101-193c0 0-32 10.76 0 94.88l.81 1.54M7.5 183.5l40 38" stroke="#fff" stroke-miterlimit="10"/><path d="M144.63 296.77 113.5 311.5l-7.52.66c-18.48.34-44.37-37.73-59.38-94.73-15.01-57-12.1-105.93 5-111.7l10.39-3M23 5s8.5 31.5 9.5 35.5v4.82h-15M7.25 25.16 9.5 29.5l1 7L7 37.68" stroke="#fff" stroke-miterlimit="10"/><path d="M10.5 36.5s7 7 8 11l-7 6L7 55.87M36.88 5s9.2 23.5 10.91 31.5c0 0 183.71-5 212.71 5M119.5 97.5l4-10h12.34s206.66 28 232.66 28c0 0-47 41-55 43 0 0-120 0-147-8 0 0-29-25-47-53ZM368.5 115.5h11.93s51.07-2 93.07-13" stroke="#fff" stroke-miterlimit="10"/><path d="M351.5 169.5c-11 3-147-4-147-4-9-1-38-15-38-15" stroke="#fff" stroke-miterlimit="10"/><path d="M380.43 115.5 351.5 167l-1 4.53s31 82 33 83c0 0 3 3 4 3h4s64-28 80-60" stroke="#fff" stroke-miterlimit="10"/><path d="m427.5 177.5 2-3 47-23-4 27-48 33-2-1 5-33ZM47.79 36.5l-2.29 16 2 2s85.22-.24 147.61 40.88" stroke="#fff" stroke-miterlimit="10"/></svg>
